X:074
T:Buffalo Gals
M:4/4
L:1/4
K:G
G>A Bc | ed B>B | dc A>A | ed B>G | 
G>A Bc | ed B>g | f/e/d/c/BA | G2 G2 :|| 
gf ef | ed d>e | dc c>d | cB B>g | 
gf ef | ed d>g | f/e/d/c/BA | G2 G2 :| 

